packages/core/src/svgs/cdai.svg

<svg width="24" height="24" viewBox="0 0 24 24" fill="none" xmlns="http://www.w3.org/2000/svg">
<g clip-path="url(#clip0_31_8084)">
<path d="M0 0H24V24H0V0Z" fill="#F0F3FA"/>
<path d="M17.1428 6.38583C15.7315 5.29623 13.9972 4.7081 12.2142 4.71441C8.07423 4.71441 4.71423 7.97583 4.71423 12.0001C4.71423 16.0244 8.07423 19.2858 12.2142 19.2858C14.0957 19.2858 15.8271 18.613 17.1428 17.503L16.3285 16.5173C15.1755 17.4824 13.7178 18.0077 12.2142 18.0001C8.78566 18.0001 5.99995 15.313 5.99995 12.0001C5.99995 8.68726 8.78566 6.00012 12.2142 6.00012C13.7228 6.00012 15.2485 6.51441 16.3285 7.38012L17.1428 6.38583Z" fill="url(#paint0_linear_31_8084)"/>
<path fill-rule="evenodd" clip-rule="evenodd" d="M12.2143 9H9.85714V11.1429H9V11.5714H9.85714V12.4286H9V12.8571H9.85714V14.5714H12.2143C12.7643 14.5714 13.3019 14.4086 13.7595 14.1036C14.2171 13.7985 14.5742 13.3648 14.7857 12.8571H15.4286V12.4286H14.9271C14.9927 12.1479 15.0143 11.8587 14.9914 11.5714H15.4286V11.1429H14.9271C14.7824 10.5324 14.4357 9.98861 13.9433 9.5997C13.451 9.21078 12.8417 8.99948 12.2143 9ZM14.4857 12.4286C14.5638 12.15 14.59 11.8595 14.5629 11.5714H10.2857V12.4286H14.4857ZM10.2857 12.8571V14.1429H12.2143C12.6488 14.1429 13.0749 14.0229 13.4455 13.796C13.8161 13.5691 14.1168 13.2442 14.3143 12.8571H10.2857ZM10.2857 11.1429H14.4857C14.3456 10.6486 14.0479 10.2137 13.6379 9.90427C13.2279 9.59482 12.728 9.42778 12.2143 9.42857H10.2857V11.1429Z" fill="url(#paint1_linear_31_8084)"/>
</g>
<defs>
<linearGradient id="paint0_linear_31_8084" x1="10.9285" y1="4.71441" x2="10.9285" y2="19.2858" gradientUnits="userSpaceOnUse">
<stop stop-color="#27D3A2"/>
<stop offset="1" stop-color="#9388FD"/>
</linearGradient>
<linearGradient id="paint1_linear_31_8084" x1="12.3386" y1="9" x2="12.3386" y2="14.5714" gradientUnits="userSpaceOnUse">
<stop stop-color="#304250"/>
<stop offset="1" stop-color="#5D6E7D"/>
</linearGradient>
<clipPath id="clip0_31_8084">
<rect width="24" height="24" fill="white"/>
</clipPath>
</defs>
</svg>

<svg xmlns="http://www.w3.org/2000/svg" width="24" height="24" fill="none" viewBox="0 0 24 24"><g clip-path="url(#a)"><path fill="#F0F3FA" d="M0 0h24v24H0z"/><path fill="url(#b)" d="M17.143 6.386a8.02 8.02 0 0 0-4.929-1.672c-4.14 0-7.5 3.262-7.5 7.286s3.36 7.286 7.5 7.286a7.64 7.64 0 0 0 4.929-1.783l-.815-.986A6.36 6.36 0 0 1 12.214 18C8.786 18 6 15.313 6 12s2.786-6 6.214-6c1.509 0 3.034.514 4.114 1.38z"/><path fill="url(#c)" fill-rule="evenodd" d="M12.214 9H9.857v2.143H9v.428h.857v.858H9v.428h.857v1.714h2.357a2.79 2.79 0 0 0 2.572-1.714h.643v-.428h-.502c.066-.281.087-.57.064-.858h.438v-.428h-.502A2.785 2.785 0 0 0 12.214 9m2.272 3.429c.078-.279.104-.57.077-.858h-4.277v.858zm-4.2.428v1.286h1.928a2.36 2.36 0 0 0 2.1-1.286zm0-1.714h4.2a2.36 2.36 0 0 0-2.272-1.714h-1.928z" clip-rule="evenodd"/></g><defs><linearGradient id="b" x1="10.928" x2="10.928" y1="4.714" y2="19.286" gradientUnits="userSpaceOnUse"><stop stop-color="#27D3A2"/><stop offset="1" stop-color="#9388FD"/></linearGradient><linearGradient id="c" x1="12.339" x2="12.339" y1="9" y2="14.571" gradientUnits="userSpaceOnUse"><stop stop-color="#304250"/><stop offset="1" stop-color="#5D6E7D"/></linearGradient><clipPath id="a"><path fill="#fff" d="M0 0h24v24H0z"/></clipPath></defs></svg>
